2 Export/Icons/Rounded/Print.svg

<svg xmlns="http://www.w3.org/2000/svg" xmlns:xlink="http://www.w3.org/1999/xlink" width="24" height="24" viewBox="0 0 24 24">
  <defs>
    <path id="print-a" d="M19 8H5c-1.66 0-3 1.34-3 3v4c0 1.1.9 2 2 2h2v2c0 1.1.9 2 2 2h8c1.1 0 2-.9 2-2v-2h2c1.1 0 2-.9 2-2v-4c0-1.66-1.34-3-3-3zm-4 11H9c-.55 0-1-.45-1-1v-4h8v4c0 .55-.45 1-1 1zm4-7c-.55 0-1-.45-1-1s.45-1 1-1 1 .45 1 1-.45 1-1 1zm-2-9H7c-.55 0-1 .45-1 1v2c0 .55.45 1 1 1h10c.55 0 1-.45 1-1V4c0-.55-.45-1-1-1z"/>
  </defs>
  <g fill="none" fill-rule="evenodd">
    <polygon points="0 0 24 0 24 24 0 24"/>
    <mask id="print-b" fill="#fff">
      <use xlink:href="#print-a"/>
    </mask>
    <use fill="#000" xlink:href="#print-a"/>
    <g fill="#000" mask="url(#print-b)">
      <rect width="24" height="24"/>
    </g>
  </g>
</svg>

<svg xmlns="http://www.w3.org/2000/svg" xmlns:xlink="http://www.w3.org/1999/xlink" width="24" height="24" viewBox="0 0 24 24">
  <defs>
    <path id="print-a" d="M19,8 L5,8 C3.34,8 2,9.34 2,11 L2,15 C2,16.1 2.9,17 4,17 L6,17 L6,19 C6,20.1 6.9,21 8,21 L16,21 C17.1,21 18,20.1 18,19 L18,17 L20,17 C21.1,17 22,16.1 22,15 L22,11 C22,9.34 20.66,8 19,8 Z M15,19 L9,19 C8.45,19 8,18.55 8,18 L8,14 L16,14 L16,18 C16,18.55 15.55,19 15,19 Z M19,12 C18.45,12 18,11.55 18,11 C18,10.45 18.45,10 19,10 C19.55,10 20,10.45 20,11 C20,11.55 19.55,12 19,12 Z M17,3 L7,3 C6.45,3 6,3.45 6,4 L6,6 C6,6.55 6.45,7 7,7 L17,7 C17.55,7 18,6.55 18,6 L18,4 C18,3.45 17.55,3 17,3 Z"/>
  </defs>
  <g fill="none" fill-rule="evenodd">
    <polygon points="0 0 24 0 24 24 0 24"/>
    <mask id="print-b" fill="#fff">
      <use xlink:href="#print-a"/>
    </mask>
    <use fill="#000" xlink:href="#print-a"/>
    <g fill="#000" mask="url(#print-b)">
      <rect width="24" height="24"/>
    </g>
  </g>
</svg>
